X:1
T:Funeral March
T:Third Movement from Sonata no.2, op.35
T:_
T:_
T:Frédénc Chop1n
T:Sheet Musicfrom
T:Funeral March
C:Frédénc Chop1n
%%score { ( 1 2 ) | ( 3 4 5 ) }
L:1/8
Q:1/4=120
M:4/4
K:Db
V:1 treble nm="Part_1"
V:2 treble 
V:3 bass 
V:4 bass 
V:5 bass 
V:1
"^Marche funébre"!pp! B,2- B,>B, B,4 | B,2- B,>B, B,4 | B,2- B,>B, B,2 D>C | C>B, B,>B, B,4 | %4
"_)0C0" ([B,D]2 D>D [B,D]2 [DF]>[CE] | [CE]>(!tenuto![B,D]) [B,D]>[B,D] [B,D]4) | %6
!>(! (B>A G>F F2 D2) |!>(! (B>A G>!>)!F F2 D2) | (B,2 B,>B, B,2 D>C) |"^10" C>B, B,>B,!>)! B,4 | %10
 d2 (.d'/ d2) [Fdf]2 [DBd]2 | d2 (.d'/ d2) [Fdf]2 [DBd]2 |"_IL" F2[K:treble+8] B,>!>![B,B] F2 G2 | %13
[K:treble]"^14"!<(! F2[K:treble+8] B,>[B,B]!<)! F2 !>![CGAc]2 | %14
 [DFd]2!<(! (F>[Gg] d2 !wedge![cac']>!<)![dd']) |!>(! (!>![fac'f']4!>)! [eac'e']3) z | %16
 [ce]2!<(! F>[=G=g] !wedge!.[df=a]6!<)! |[K:treble] (!arpeggio![B=e=gd']4"^I8" [cfc']2) z2 | %18
[K:bass][I:staff +1] .D,4 (TA,,4 .D,4)[I:staff -1] x11/8 |!>(! D2 C2 [D,B,]4 | %20
!p! B,2- B,>B, B,2 D>C |[K:bass]"^22" C3 F,2 B,/!<(! B,>B, B,2 A,4 ([_F,A,D]>!>)![G,CE]) | %22
 [F,DF]2[K:treble] (F>[Gg] d2 !wedge!c>!<)![dd']) |!>(! (!>![fac'f']4!>)! [eac'e']3) z | %24
 [ce]2[K:treble+8]!<(! F>[=G=g] !wedge!.d2!<)! f2 | %25
[K:treble] (!arpeggio![B=e=gd']4"^26" [cfc']2) z2 | %26
[K:bass][I:staff +1] .D,4 (TA,,4[I:staff -1] (3:2:1E2[I:staff +1] .D,4[I:staff -1][I:staff +1] D,2) D,2[I:staff -1] x/24 | %27
!>(! D2 C2[I:staff +1] E,,3!>)!"_dimin." !>!G,,2 F,,D,, | %28
[I:staff -1][K:bass]"^29"!p! B,2 B,>B, B,2 D>C | %29
 C3 F,2 B,/"_dim." B,>B, B,2[K:treble]!>)!!>(! z2 |:[K:treble]!pp! (f4 =gf=e=d | c2 b2 a4) | %32
 (g4 agfe | d2 d'2 a4) |"^35" (f4 gfe=d | (.b4 e)=def g)(Bfe |S .g4 Td4) (ba=gA | e4 d2) z2 :: %38
 (c4 dcBA | =G2 f2 e4) | (d4 edcB | .=A2 g2 f4) |"^43" (f4 gfed) | (d2 c2) z (c.d>c) | %44
!p! (c2 B2) z!<(! (c.d>c) | (c2 f2"_dim." g2 A2) |S!pp!"^47" (f4 gfed | c2 b2 a4) |S (g4 agfe | %49
 d2 d'2 a4) |[K:treble]"^51" (f4 gfe=d | (.b4 e)=def g)(Bfe | .g4 Td4) (ba=gA | e4 d2) z2 :| %54
"^55" e4 d2 z2 || B,2- B,>B, B,4 | B,2- B,>B, B,4 | B,2- B,>B, B,2 D>C | C>B, B,>B, B,4 | %59
"_)0C0" [B,D-]2 D>D [B,D]2 [DF]>[CE] | [CE]>[B,D] [B,D]>[B,D] [B,D]4 |!>(! (B>A G>F F2 D2) | %62
"^63"!>(! (B>A G>!>)!F F2 D2) | B,2- B,>B, B,2 D>C | C>B, B,>B,!>)! B,4 | %65
 d2 (.d'/ d2) [Fdf]2 [DBd]2 |"^67" d2 .d'/ d2 [Fdf]2 [DBd]2 | %67
"_IL" F2[K:treble+8] !>!B,>[B,B] F2 G2 |!<(! F2 B,>[B,B] F2 !>![CGAc]2 | %69
[K:treble] [DFd]2 (F>[Gg] d2 !wedge!c>!<)![dd']) |!>(! (!>![fac'f']4!>)! [eac'e']3) z | %71
 ([ce]2!<(! !wedge![Bd]2) !wedge!=A>[=B=b]!<)! f2 | (!arpeggio![B=e=gd']4 [cfc']2) z2 | %73
[K:bass][K:bass][I:staff +1] !wedge!.D,4"_74" TA,,4 .D,4[I:staff -1] x11/8 | %74
[I:staff +1] !wedge!.B,,4!>(! TF,,4 !>!G,,2"^zmu" F,,D,, |!p![I:staff -1] B,2- B,>B, B,2 D>C | %76
 C3 F,2 B,/!<(! B,>B, B,2 A,4 ([_F,A,D]>!>)![G,CE]) | %77
 [F,DF]2[K:treble]"^78" F>[Gg] d2 !wedge!.[ac']6!<)! |!>(! (!>![fac'f']4!>)! [eac'e']3) z | %79
 [ce]2!<(! !wedge![Bd]2 !wedge!=A>[=B=b]!<)! f2 | (!arpeggio![B=e=gd']4 [cfc']2) z2 | %81
[K:bass][K:bass][I:staff +1] !wedge!.D,4"_82" TA,,4 .D,4[I:staff -1] x11/8 | %82
[I:staff +1] .B,,4[I:staff -1] z!>(![I:staff +1] TF,,4 .B,,4"^zmu" !>!G,,2 F,,D,, | %83
!p![I:staff -1] (B,2 B,>B, B,2 D>C | C3 F,2 B,/ B,>B, !fermata!z) x |] %85
V:2
 x7/2 .F,2 x5/2 | x8 | x8 | x8 | x8 | x8 | x8 | x8 | x8 | x8 | x17/2 | x17/2 | x2[K:treble+8] x6 | %13
[K:treble] x2[K:treble+8] x6 | x4 [Aa]3/2[Bb]3/4 x7/4 | x8 | x6 [cc']>[dd'] x2 |[K:treble] x8 | %18
[K:bass] x28/3[I:staff +1] D,2 D,2 | x8 | x8 | %21
[I:staff -1][K:bass] x7/2[I:staff +1] [D,,G,,D,]2 x2 B,,,4 x4 | %22
 x2[I:staff -1][K:treble] x2 [Aa]3/2[Bb]3/4 x7/4 | x8 | x2[K:treble+8] x6 |[K:treble] x8 | %26
[K:bass] x139/8 | x11 |[K:bass] x8 | x7/2[I:staff +1] [D,,G,,D,]2 x5/2[K:treble] x7/2 |: %30
[I:staff -1][K:treble] x8 | x8 | x8 | x8 | x8 | x12 | x12 | x8 :: x8 | x8 | x8 | x8 | x8 | x8 | %44
 x8 | x8 | x8 | x8 | x8 | x8 |[K:treble] x8 | x12 | x12 | x8 :| x8 || x8 | x8 | x8 | x8 | x8 | x8 | %61
 x8 | x8 | x8 | x8 | x17/2 | x17/2 | x2[K:treble+8] x6 | x8 |[K:treble] x4 [Aa]3/2[Bb]3/4 x7/4 | %70
 x8 | x8 | x8 |[K:bass][K:bass] x28/3[I:staff +1] D,2 D,2 | x6 .B,,4 x2 | x8 | %76
 x7/2 [D,,G,,D,]2 x2 B,,,4 x4 | x2[I:staff -1][K:treble] x2 [Aa]>[Bb] c>[dd'] x4 | x8 | x8 | x8 | %81
[K:bass][K:bass] x28/3[I:staff +1] D,2 D,2 | x17 | x8 | x7/2 [D,,G,,D,]2 x4 |] %85
V:3
[I:staff -1] F,2 .G,2 G,2[I:staff +1] x2 |[I:staff -1] F,2 G,2 F,2 G,2 | F,2 G,2 F,2 G,2 | %3
 F,2 G,2 F,2 G,2 | F,2 [G,B,]2 !>!F,2 G,2 | F,2 G,2 F,2 G,2 | [B,D]2 [B,D]2 [B,D]2 B,2 | %7
 [B,D]2 [B,D]2 [B,D]2 B,2 | F,2 !>!G,2 F,2 G,2 | F,2 G,2 F,2 G,2 | %10
 [Bb]([Aa][I:staff +1] x/[I:staff -1] [Gg]>)[Ff][I:staff +1] x4 | %11
[I:staff -1] [Bb]([Aa][I:staff +1] x/[I:staff -1] [Gg]>)[Ff][I:staff +1] x4 | %12
[I:staff -1] ([B,B,]2[I:staff +1] x2[I:staff -1] [BB]2 [Dd]>[Cc]) | %13
 [C,C]>[B,,B,][I:staff +1] x2[I:staff -1] [BB]2[I:staff +1] x2 | %14
!ped! [D,,,D,,]2 D>E!ped-up! F>G [A,A]2 | %15
!ped! [A,,,A,,]2[K:treble] ([EGc]>!ped-up![DGB] [DGB]>[CGA] [CGA]>[=A,CE]) | %16
[K:bass]!ped![I:staff -1] [ff]2[I:staff +1] x2!ped![I:staff -1] =a>[Bb] f2[I:staff +1] x2 | %17
[K:bass]!ped! [F,,,F,,]2!>(! ([F,B,D=G]2!ped-up! !arpeggio![F,=A,C=A]2) F,2 | %18
 x4!ped![I:staff -1] (3[_G,_A,C_A-]2 F2 [G,A,CA]2 (3:2:1E2!ped-up! [F,A]2[I:staff +1] z2 x/24 | %19
[I:staff -1] [E,=A,F]2 [E,A,F]2!>)![I:staff +1] x2"^zmu" F,,D,, |[I:staff -1] F,2 G,2 F,2 G,2 | %21
[I:staff +1] x3 [B,,,F,,B,,]2 x/ ([B,,,F,,B,,]2 B,,4 [B,,,B,,]>[A,,,A,,]) x2 | %22
!ped! [D,,,D,,]2 D>E!ped-up! F>G [A,A]2 | %23
!ped! [A,,,A,,]2[K:treble] ([EGc]>[DGB]!ped-up! [DGB]>[CGA] [CGA]>[=A,CE]) | %24
[K:bass]!ped![I:staff -1] [FF]2[I:staff +1] x2!ped-up!!ped![I:staff -1] [=af=a]>[Bb] [cc']>[dd'] | %25
[I:staff +1][K:bass]!ped! [F,,,F,,]2!>(! ([F,B,D=G]2!ped-up! !arpeggio![F,=A,C=A]2) F,2 | %26
 x4!ped![I:staff -1] (3[_G,_A,C_A-]2 F2 [G,A,CA]2[I:staff +1] x16/3!ped-up![I:staff -1] [F,A]2[I:staff +1] z2 x/24 | %27
[I:staff -1] ([E,=A,F]2 [E,A,F]2!>)![I:staff +1] x3[I:staff -1] [D,B,]4) | F,2 G,2 F,2 G,2 | %29
[I:staff +1] x3 [B,,,F,,B,,]2 x/ [B,,,F,,B,,]2 [A,,,A,,]2 x2 |: %30
[K:bass]!ped! (=D,,F=d=D) (D,,Fd!ped-up!D) | (E,,A,,G,C) (E,,A,,G,C) | %32
!ped! (A,,,A,,G,C) (A,,,A,,G,C) |!ped! (D,,A,,F,D) (D,,A,,F,!ped-up!D) | %34
!ped! (D,,A,,F,!ped-up!D)!ped! (B,,,B,,A,!ped-up!=D) | %35
 x4!ped! (E,,B,,G,!ped-up!E)!ped! (G,,E,B,!ped-up!E) | %36
 x4!ped! (=G,,=E,D!ped-up!B)!ped! (A,,_E,C!ped-up!_G) | %37
!ped! (A,,,A,,G,!ped-up!C)!ped! (D,,A,,F,!ped-up!D) ::!ped! (A,,,A,,E,C) (A,,,A,,E,!ped-up!C) | %39
!ped! (B,,,B,,E,.D) (B,,,B,,E,!ped-up!.D) |!ped! (B,,,B,,._F,.D) (B,,,B,,.F,!ped-up!.D) | %41
!ped! (C,,C,.F,!ped-up!.E)!ped! (C,,C,.F,!ped-up!.E) |!ped! (D,,D,.B,.F) (D,,D,.B,.F) | %43
 (E,,E,.B,.G) (F,,.F,.B,!ped-up!F) | (G,,G,B,E) (G,,G,B,_F) | (F,,C,=A,F) (E,,E,_A,[CG]) | %46
 (D,,A,,F,D) (D,,A,,F,D) |!ped! (E,,A,,G,C) (E,,A,,G,!ped-up!C) | %48
!ped! (A,,,A,,G,C) (A,,,A,,G,!ped-up!C) |!ped! (D,,A,,F,D) (D,,A,,F,!ped-up!D) | %50
[K:bass]!ped! (D,,A,,F,!ped-up!D)!ped! (B,,,B,,A,!ped-up!=D) | %51
 x4!ped! (E,,B,,G,!ped-up!E)!ped! (G,,E,B,!ped-up!E) | %52
 x4!ped! (=G,,=E,D!ped-up!B)!ped! (A,,_E,C!ped-up!_G) | %53
!ped! (A,,,A,,G,!ped-up!C)!ped! (D,,A,,F,!ped-up!D) :|!ped! (A,,,A,,G,!ped-up!C [D,F,D]2) z2 || %55
[I:staff -1] F,2 G,2 F,2 G,2 | F,2 G,2 F,2 G,2 | F,2 G,2 F,2 G,2 | F,2 G,2 F,2 G,2 | %59
 F,2 [G,B,]2 F,2 G,2 | F,2 G,2 F,2 G,2 | [B,D]2 [B,D]2 [B,D]2 B,2 | [B,D]2 [B,D]2 [B,D]2 B,2 | %63
 F,2 !>!G,2 F,2 G,2 | F,2 G,2 F,2 G,2 | %65
 [Bb]([Aa][I:staff +1] x/[I:staff -1] [Gg]>)[Ff][I:staff +1] x4 | %66
[I:staff -1] [Bb]([Aa][I:staff +1] x/[I:staff -1] [Gg]>)[Ff][I:staff +1] x4 | %67
[I:staff -1] [B,B,]2[I:staff +1] x2[I:staff -1] [BB]2 [Dd]>[Cc] | %68
 [Cc]>[B,B][I:staff +1] x2[I:staff -1] [BB]2[I:staff +1] x2 | %69
[K:bass]!ped! [D,,,D,,]2 D>E!ped-up! F>G [A,A]2 | %70
!ped! [A,,,A,,]2[K:treble] ([EGc]>!ped-up![DGB] [DGB]>[CGA] [CGA]>[=A,CE]) | %71
[K:bass]!ped![I:staff -1] [Ff]2 ([FBdf]>[=G=g]!ped![I:staff +1] x2[I:staff -1] [cc']>[dd']) | %72
!ped![I:staff +1] [F,,,F,,]2!>(! ([F,B,D=G]2!ped-up! !arpeggio![F,=A,C=A]2) F,2 | %73
[K:bass] x4!ped![I:staff -1] (3[_G,_A,C_A-]2 F2 [G,A,CA]2 (3:2:1E2!ped-up! [F,A]2[I:staff +1] z2 x/24 | %74
 x4!ped![I:staff -1] D2 C2!>)!!ped-up! [D,B,]4 | F,2 G,2 F,2 G,2 | %76
[I:staff +1] x3 [B,,,F,,B,,]2 x/ ([B,,,F,,B,,]2 B,,4 [B,,,B,,]>[A,,,A,,]) x2 | %77
!ped! [D,,,D,,]2 D>E!ped-up! F>G [A,A]2 x4 | %78
!ped! [A,,,A,,]2[K:treble] ([EGc]>!ped-up![DGB] [DGB]>[CGA] [CGA]>[=A,CE]) | %79
[K:bass]!ped![I:staff -1] [Ff]2 ([FBdf]>[=G=g]!ped![I:staff +1] x2[I:staff -1] [cc']>[dd']) | %80
!ped![I:staff +1] [F,,,F,,]2!>(! ([F,B,D=G]2!ped-up! !arpeggio![F,=A,C=A]2) F,2 | %81
[K:bass] x4!ped![I:staff -1] (3[_G,_A,C_A-]2 F2 [G,A,CA]2 (3:2:1E2!ped-up! [F,A]2[I:staff +1] z2 x/24 | %82
 x5!ped![I:staff -1] D2 C2[I:staff +1] x4!>)!!ped-up![I:staff -1] [D,B,]4 | F,2 G,2 F,2 G,2 | %84
[I:staff +1] x3 [B,,,F,,B,,]2 x/ !fermata![B,,,F,,B,,]4 |] %85
V:4
 [B,,,F,,B,,]2 (3:2:4[D,,G,,D,]2 x/4 [B,,,F,,B,,]2 x7/4 x2 | %1
 [B,,,F,,B,,]2 [D,,G,,D,]2 [B,,,F,,B,,]2 [D,,G,,D,]2 | %2
 [B,,,F,,B,,]2 [D,,G,,D,]2 [B,,,F,,B,,]2 [D,,G,,D,]2 | %3
 [B,,,F,,B,,]2 [D,,G,,D,]2 [B,,,F,,B,,]2 [D,,G,,D,]2 | %4
 [B,,,F,,B,,]2 [D,,G,,D,]2 [B,,,F,,B,,]2 [D,,G,,D,]2 | %5
 [B,,,F,,B,,]2 [D,,G,,D,]2 [B,,,F,,B,,]2 [D,,G,,D,]2 | %6
 [B,,,F,,B,,]2 [D,,G,,D,]2 [B,,,F,,B,,]2 [D,,G,,D,]2 | %7
 [B,,,F,,B,,]2 [D,,G,,D,]2 [B,,,F,,B,,]2 [D,,G,,D,]2 | %8
 [B,,,F,,B,,]2 [D,,G,,D,]2 [B,,,F,,B,,]2 [D,,G,,D,]2 | %9
 [B,,,F,,B,,]2 [D,,G,,D,]2 [B,,,F,,B,,]2 [D,,G,,D,]2 | %10
 [B,,,F,,B,,]2 x/ [D,,G,,D,]2 [B,,,F,,B,,]2 [D,,G,,D,]2 | %11
 [B,,,F,,B,,]2 x/ [D,,G,,D,]2 [B,,,F,,B,,]2 [D,,G,,D,]2 | %12
 [B,,,F,,B,,]2 [D,,G,,D,]2 [B,,,F,,B,,]2 [D,,G,,D,]2 | %13
 [B,,,F,,B,,]2 [D,,G,,D,]2 [B,,,F,,B,,]2 [A,,,A,,]2 | x2 [D,A,]2 [D,A,]2 E>F | %15
 x2[K:treble] x11/2[I:staff -1] [c'eg]/8 x3/8 | %16
[I:staff +1][K:bass] [B,,,B,,]2 [F,B,D]2 [D,,D,]2 [F,B,DF]2 x2 |[K:bass] x8 | %18
 x75/8[I:staff -1] D2 x49/24 | x2[I:staff +1] E,,E,, !>!G,,2 x2 | %20
 [B,,,B,,]2 [D,,G,,D,]2 [B,,,F,,B,,]2 [D,,G,,D,]2 | x7/2[I:staff -1] G,2 F,2 x8 | %22
 x2[I:staff +1] [D,A,]2 [D,A,]2 E>F | x2[K:treble] x11/2[I:staff -1] [ceg]/8 x3/8 | %24
[I:staff +1][K:bass] [B,,,B,,]2 [F,B,D]2 [D,,D,]2 [F,B,DF]2 |[K:bass] x8 | %26
 x40/3[I:staff -1] D2 x49/24 | x11 |[I:staff +1] [B,,,B,,]2 [D,,G,,D,]2 [B,,,F,,B,,]2 [D,,G,,D,]2 | %29
 x7/2[I:staff -1] G,2 F,2 x4 |:[I:staff +1][K:bass] x8 | x8 | x8 | x8 | x8 | x12 | %36
 x7[I:staff -1] .=g4 x | x8 :: x8 | x8 | x8 | x8 | x8 | x8 | x8 | x8 | x8 | x8 | x8 | x8 | %50
[I:staff +1][K:bass] x8 | x12 | x7[I:staff -1] .=g4 x | x8 :| x8 || %55
[I:staff +1] [B,,,F,,B,,]2 [D,,G,,D,]2 [B,,,F,,B,,]2 [D,,G,,D,]2 | %56
 [B,,,F,,B,,]2 [D,,G,,D,]2 [B,,,F,,B,,]2 [D,,G,,D,]2 | %57
 [B,,,F,,B,,]2 [D,,G,,D,]2 [B,,,F,,B,,]2 [D,,G,,D,]2 | %58
 [B,,,F,,B,,]2 [D,,G,,D,]2 [B,,,F,,B,,]2 [D,,G,,D,]2 | %59
 [B,,,F,,B,,]2 [D,,G,,D,]2 [B,,,F,,B,,]2 [D,,G,,D,]2 | %60
 [B,,,F,,B,,]2 [D,,G,,D,]2 [B,,,F,,B,,]2 [D,,G,,D,]2 | %61
 [B,,,F,,B,,]2 [D,,G,,D,]2 [B,,,F,,B,,]2 [D,,G,,D,]2 | %62
 [B,,,F,,B,,]2 [D,,G,,D,]2 [B,,,F,,B,,]2 [D,,G,,D,]2 | %63
 [B,,,F,,B,,]2 [D,,G,,D,]2 [B,,,F,,B,,]2 [D,,G,,D,]2 | %64
 [B,,,F,,B,,]2 [D,,G,,D,]2 [B,,,F,,B,,]2 [D,,G,,D,]2 | %65
 [B,,,F,,B,,]2 x/ [D,,G,,D,]2 [B,,,F,,B,,]2 [D,,G,,D,]2 | %66
 [B,,,F,,B,,]2 x/ [D,,G,,D,]2 [B,,,F,,B,,]2 [D,,G,,D,]2 | %67
 [B,,,F,,B,,]2 [D,,G,,D,]2 [B,,,F,,B,,]2 [D,,G,,D,]2 | %68
 [B,,,F,,B,,]2 [D,,G,,D,]2 [B,,,F,,B,,]2 [A,,,A,,]2 |[K:bass] x2 [D,A,]2 [D,A,]2 E>F | %70
 x2[K:treble] x11/2[I:staff -1] [ceg]/8 x3/8 | %71
[I:staff +1][K:bass] [B,,,B,,]2 [F,B,D]2 [D,,D,]2 [F,=B,DF]2 | x8 | %73
[K:bass] x75/8[I:staff -1] D2 x49/24 | x4 [E,=A,F]2 [E,A,F]2 x4 | %75
[I:staff +1] [B,,,B,,]2 [D,,G,,D,]2 [B,,,F,,B,,]2 [D,,G,,D,]2 | x7/2[I:staff -1] G,2 F,2 x8 | %77
 x2[I:staff +1] [D,A,]2 [D,A,]2 E>F x4 | x2[K:treble] x11/2[I:staff -1] [ceg]/8 x3/8 | %79
[I:staff +1][K:bass] [B,,,B,,]2 [F,B,D]2 [D,,D,]2 [F,=B,DF]2 | x8 | %81
[K:bass] x75/8[I:staff -1] D2 x49/24 | x5 [E,=A,F]2 [E,A,F]2 x8 | %83
[I:staff +1] [B,,,B,,]2 [D,,G,,D,]2 [B,,,F,,B,,]2 [D,,G,,D,]2 | x7/2[I:staff -1] G,2 F,4 |] %85
V:5
 x4 (3:2:2[D,,G,,D,]2 x4 | x8 | x8 | x8 | x8 | x8 | x8 | x8 | x8 | x8 | x17/2 | x17/2 | x8 | x8 | %14
 x8 | x2[K:treble] x6 |[K:bass] x10 |[K:bass] x8 | x161/12 | x8 | x8 | x31/2 | x8 | %23
 x2[K:treble] x6 |[K:bass] x8 |[K:bass] x8 | x139/8 | x11 | x8 | x23/2 |:[K:bass] x8 | x8 | x8 | %33
 x8 | x8 | x12 | x12 | x8 :: x8 | x8 | x8 | x8 | x8 | x8 | x8 | x8 | x8 | x8 | x8 | x8 | %50
[K:bass] x8 | x12 | x12 | x8 :| x8 || x8 | x8 | x8 | x8 | x8 | x8 | x8 | x8 | x8 | x8 | x17/2 | %66
 x17/2 | x8 | x8 |[K:bass] x8 | x2[K:treble] x6 |[K:bass] x8 | x8 |[K:bass] x161/12 | x12 | x8 | %76
 x31/2 | x12 | x2[K:treble] x6 |[K:bass] x8 | x8 |[K:bass] x161/12 | x17 | x8 | x19/2 |] %85

